assets/svgs/objects/sound/Sound7.svg

<svg id="emoji" viewBox="0 0 72 72" xmlns="http://www.w3.org/2000/svg">
  <g id="color">
    <path fill="#9b9b9a" stroke="none" d="M12.0792,44.4113v-16.694c0-1.1046,0.8955-2,2-2h11.712v20.692h-11.712 C12.9754,46.4093,12.0803,45.5151,12.0792,44.4113z"/>
    <path fill="#d0cfce" stroke="none" d="M42.2682,58.4333l-14.5-11.579c0.036-0.0961,0.0566-0.1974,0.061-0.3v-21.25 c-0.0055-0.0394-0.0135-0.0785-0.024-0.117l14.459-11.74L42.2682,58.4333z"/>
  </g>
  <g id="hair"/>
  <g id="skin"/>
  <g id="skin-shadow"/>
  <g id="line">
    <path fill="none" stroke="#000000" stroke-linecap="round" stroke-linejoin="round" stroke-width="2" d="M43.2188,11.3752 l-16.435,13.346h-12.712c-1.6548,0.005-2.995,1.3452-3,3v16.692c0.005,1.6548,1.3452,2.995,3,3h12.712l16.436,13.128 L43.2188,11.3752z"/>
    <line x1="26.7838" x2="26.7838" y1="25.3332" y2="46.5832" fill="none" stroke="#000000" stroke-linecap="round" stroke-linejoin="round" stroke-width="2"/>
    <path fill="none" stroke="#000000" stroke-linecap="round" stroke-miterlimit="10" stroke-width="2" d="M54.6738,24.6122 c5.0427,6.7235,5.0427,15.9684,0,22.692"/>
    <path fill="none" stroke="#000000" stroke-linecap="round" stroke-miterlimit="10" stroke-width="2" d="M58.8689,19.7825 c7.1892,9.5856,7.1892,22.7658,0,32.3514"/>
  </g>
</svg>

<svg xmlns="http://www.w3.org/2000/svg" viewBox="0 0 72 72"><path fill="#9b9b9a" d="M12.08 44.411V27.717a2 2 0 012-2H25.79V46.41H14.08a2 2 0 01-2-1.998z"/><path fill="#d0cfce" d="M42.268 58.433l-14.5-11.579a.974.974 0 00.061-.3v-21.25a.937.937 0 00-.024-.117l14.46-11.74.003 44.986z"/><g fill="none" stroke="#000" stroke-linecap="round" stroke-width="2"><path stroke-linejoin="round" d="M43.219 11.375L26.784 24.721H14.072a3.01 3.01 0 00-3 3v16.692a3.01 3.01 0 003 3h12.712L43.22 60.541l-.001-49.166zM26.784 25.333v21.25"/><path stroke-miterlimit="10" d="M54.674 24.612a18.91 18.91 0 010 22.692M58.869 19.782a26.96 26.96 0 010 32.352"/></g></svg>
